X:1
T:Title
%%score ( 1 2 ) ( 3 4 )
L:1/8
Q:1/4=90
M:4/4
K:Bb
V:1 treble nm="Grand Piano, Soprano"
V:2 treble 
V:3 bass nm="Choir Pad, He Always Comes That Way"
V:4 bass 
V:1
 [DF]2 [DF][CE] [B,D]>[CE] [DF][DB]- | [DB][Fd][Gc][GB] [GB]>[EG] [DF]2- | %2
w: By~John~R.~Bryant * * * * * *||
 [DF][DF][EG][EA] [EB][Ec] [Fd]>[Ec] | [DB][Fd] [Fc]6 | [Fc]2 [Fd][Ec] [DB]>[Fd] [Ec][DB]- | %5
w: |||
 [DB][Fd][Gc][GB] [GB]>[EG] [DF]2 | [Ge]2 [Fd][Fd] [Fd]>[DB] [Ec]2 | [Ec]2 [DB]6 | %8
w: |||
 [DF]2 [Fd][Fd] [Fd]>[=E_d] [F=d]2 | z2 c6 | [EF]2 [EA][EA] [EA]>[EB] [Ec]2 | z2 B6 | %12
w: ||||
 [FB]2 [EB][EA] [EG]>[E^F] [EG][EB]- | [EB][EG][EG][DF] [DF]>[C=E] [DF]2 | %14
w: ||
 [Ge]2 [Fd][Fd] [Fd]>[DB] [Ec]2 | z2 B6- | B4 z4 |] %17
w: |||
V:2
 x8 | x8 | x8 | x8 | x8 | x8 | x8 | x8 | x8 | F2 E>E EE E2 | x8 | [EF]2 DD _DD =D2 | x8 | x8 | x8 | %15
 [Ec]2 D>E FG F2- | F4 z4 |] %17
V:3
 [B,,B,]2 [B,,B,][B,,F,] [B,,F,]>[B,,F,] [B,,B,][B,,B,]- | %1
 [B,,B,][B,,B,][E,B,][E,B,] [E,B,]>[E,B,] [B,,B,]2- | %2
 [B,,B,][B,,B,][E,B,][E,B,] [E,G,][E,G,] [B,,B,]>[C,A,] | [D,B,][B,,B,] [F,A,]6 | %4
 [F,A,]2 [B,,B,][B,,B,] [B,,B,]>[B,,B,] [B,,B,][B,,B,]- | %5
 [B,,B,][B,,B,][E,B,][E,B,] [E,B,]>[E,B,] [B,,B,]2 | [E,B,]2 [F,B,][F,B,] [F,B,]>[F,B,] [F,A,]2 | %7
 [F,A,]2 [B,,B,]6 | [B,,B,]2 [B,,B,][B,,B,] [B,,B,]>[B,,B,] [B,,B,]2 | [F,A,]2 A,>A, A,A, A,2 | %10
 [F,A,]2 [F,C][F,C] [F,C]>[F,B,] [F,A,]2 | [F,A,]2 B,F, =E,E, F,2 | %12
 [D,B,]2 [E,G,][E,G,] [E,B,]>[E,B,] [E,B,][E,G,]- | %13
 [E,G,][E,B,][B,,B,][B,,B,] [B,,B,]>[B,,B,] [B,,B,]2 | [E,B,]2 [F,B,][F,B,] [F,B,]>[F,B,] [F,A,]2 | %15
 [F,A,]2 B,>C DE D2- | D4 z4 |] %17
V:4
 x8 | x8 | x8 | x8 | x8 | x8 | x8 | x8 | x8 | z2 F,6 | x8 | z2 B,,4 z2 | x8 | x8 | x8 | z2 B,,6- | %16
 B,,4 z4 |] %17

